X:1
T:Now Robin Lend to Me thy Bow
M:2/2
L:1/2
K:D
 D| E/2 F/2 G-| G F| E E| D| d| =c B| B3/2 A/2| G E| A| D| G/2 A/2 B/2 =c/2|\
 d3/2 A/2| =c/2 B/2 A/2 G/2| F| A| e2| B d-| d- c| d||
